X: 17
T: Walley Honey
%%VWML:Wrights-3753-p9-0
F: http://www.vwml.org/record/Wrights/3753/p9
%R: slip-jig
B: Daniel Wright "Wright's Compleat Collection of Celebrated Country Dances" 1740 p.9
S: http://library.efdss.org/cgi-bin/dancebooks.cgi
Z: 2014 John Chambers <jc:trillian.mit.edu>
N: The rhythm is wrong at the strains' ends; not fixed.
M: 9/8
L: 1/8
K: C
%-------------------------
|:\
cGG G2G cAA | cGG G2G c3 |\
cGG G2G cAA | B2c d/e/fd c3 :|
|: e |\
de/f/g G2c AFe | de/f/g G2G f2e |\
de/f/g G2c AFc | B2c d/e/fd c2 :|
%-------------------------
%%begintext align
%% The 1st Man setts to the 2d Wo. & turns
%% Her .| First Wo. does the same with the
%% 2d Man :| The 1st and 2d Men leads out
%% first, & 2d Wo. does the same at the same
%% time, and then turn your own Partners .|
%% The 1st & 2d Cu. right and left half round.
%%endtext
%-------------------------
%%sep 2 4 300
T: the New way of Wooing
T: Longways for as many as will.
%R: march
B: Daniel Wright "Wright's Compleat Collection of Celebrated Country Dances" 1740 p.9
S: http://library.efdss.org/cgi-bin/dancebooks.cgi
Z: 2014 John Chambers <jc:trillian.mit.edu>
N: The 2nd strain has initial repeat but no final repeat; not fixed.
M: C|
L: 1/8
K: D
%-------------------------
A2 |\
F2 A4 de | f4 e2d2 | B4 A2F2 | E6 A2 |\
F2 A4 de | f4 e2d2 | A2B2 A2F2 | D6 :|
A2 |\
A2F2 (Bc)(dB) | F2A2 (Bc)(dB) | F2A2 (Bc)(dB) | e2 E4 A2 |\ F2A2 (Bc)(dB) | F2A2 (Bc)(dB) | F2A2 (Bc)(dB) | d2D2 D2A2 | F2A2 (Bc)(dB) | F2A2 (Bc)(dB) | F2A2 (Bc)(dB) | e2E2 E2fg |\ a2gf g2fe | f2ed c2BA | Bcd2 A2F2 | D6 |] %-------------------------
%%begintext align
%% The 1st Cu. cast off and lead through the 3d .| first Cu. cast off %% again & lead up to the Top :| the 1st and 2d Cu. foots it then %% Clap Hands, foot it again, clap as before, 1st Cu. cast off. %%endtext
%-------------------------
%%sep 2 4 300
